img/home/email.svg

<svg width="16" height="12" viewBox="0 0 16 12" fill="none" xmlns="http://www.w3.org/2000/svg">
<path d="M2 12C1.5875 12 1.23438 11.8531 0.940625 11.5594C0.646875 11.2656 0.5 10.9125 0.5 10.5V1.5C0.5 1.0875 0.646875 0.734375 0.940625 0.440625C1.23438 0.146875 1.5875 0 2 0H14C14.4125 0 14.7656 0.146875 15.0594 0.440625C15.3531 0.734375 15.5 1.0875 15.5 1.5V10.5C15.5 10.9125 15.3531 11.2656 15.0594 11.5594C14.7656 11.8531 14.4125 12 14 12H2ZM8 6.75L2 3V10.5H14V3L8 6.75ZM8 5.25L14 1.5H2L8 5.25ZM2 3V1.5V10.5V3Z" fill="url(#paint0_radial_2013_8)"/>
<defs>
<radialGradient id="paint0_radial_2013_8" cx="0" cy="0" r="1" gradientUnits="userSpaceOnUse" gradientTransform="translate(8 6) rotate(90) scale(6 7.5)">
<stop stop-color="#04050D"/>
<stop offset="1" stop-color="#090D1A"/>
</radialGradient>
</defs>
</svg>

<svg width="16" height="12" fill="none" xmlns="http://www.w3.org/2000/svg"><path d="M2 12c-.413 0-.766-.147-1.06-.44A1.445 1.445 0 0 1 .5 10.5v-9C.5 1.087.647.734.94.44 1.235.148 1.588 0 2 0h12c.412 0 .766.147 1.06.44.293.294.44.647.44 1.06v9c0 .412-.147.766-.44 1.06-.294.293-.648.44-1.06.44H2Zm6-5.25L2 3v7.5h12V3L8 6.75Zm0-1.5 6-3.75H2l6 3.75ZM2 3V1.5v9V3Z" fill="url(#a)"/><defs><radialGradient id="a" cx="0" cy="0" r="1" gradientUnits="userSpaceOnUse" gradientTransform="matrix(0 6 -7.5 0 8 6)"><stop stop-color="#04050D"/><stop offset="1" stop-color="#090D1A"/></radialGradient></defs></svg>
